round/svg/alarm_on.svg

<svg xmlns="http://www.w3.org/2000/svg" width="24" height="24"><path fill="none" d="M0 0h24v24H0V0z"/><g fill="currentColor"><path d="M14.94 10.11l-4.4 4.42-1.6-1.6a.754.754 0 0 0-1.06 0c-.29.29-.29.77 0 1.06L10 16.11c.29.29.77.29 1.06 0L16 11.17c.29-.29.29-.77 0-1.06a.754.754 0 0 0-1.06 0zM21.18 5.01L18.1 2.45c-.42-.35-1.05-.3-1.41.13-.35.42-.29 1.05.13 1.41l3.07 2.56c.42.35 1.05.3 1.41-.13a1 1 0 0 0-.12-1.41zM4.1 6.55l3.07-2.56c.43-.36.49-.99.13-1.41a.988.988 0 0 0-1.4-.13L2.82 5.01a1 1 0 0 0-.12 1.41c.35.43.98.48 1.4.13z"/><path d="M12 4a9 9 0 1 0 .001 18.001A9 9 0 0 0 12 4zm0 16c-3.86 0-7-3.14-7-7s3.14-7 7-7 7 3.14 7 7-3.14 7-7 7z"/></g></svg>

<?xml version="1.0" encoding="utf-8"?>
<!-- Generator: Adobe Illustrator 19.1.0, SVG Export Plug-In . SVG Version: 6.00 Build 0)  -->
<svg version="1.1" xmlns="http://www.w3.org/2000/svg" xmlns:xlink="http://www.w3.org/1999/xlink" x="0px" y="0px" width="24px"
	 height="24px" viewBox="0 0 24 24" enable-background="new 0 0 24 24" xml:space="preserve">
<g id="Header_x2F_BG" display="none">
	<rect x="-182" y="-94" display="inline" fill="#F1F1F2" width="520" height="520"/>
</g>
<g id="Bounding_Boxes">
	<g id="ui_x5F_spec_x5F_header_copy_3">
	</g>
	<path fill="none" d="M0,0h24v24H0V0z"/>
</g>
<g id="Rounded" fill="currentColor">
	<g id="ui_x5F_spec_x5F_header_copy_5">
	</g>
	<g>
		<path d="M14.94,10.11l-4.4,4.42l-1.6-1.6c-0.29-0.29-0.77-0.29-1.06,0l0,0c-0.29,0.29-0.29,0.77,0,1.06L10,16.11
			c0.29,0.29,0.77,0.29,1.06,0L16,11.17c0.29-0.29,0.29-0.77,0-1.06C15.71,9.82,15.23,9.82,14.94,10.11z"/>
		<path d="M21.18,5.01L18.1,2.45c-0.42-0.35-1.05-0.3-1.41,0.13C16.34,3,16.4,3.63,16.82,3.99l3.07,2.56
			c0.42,0.35,1.05,0.3,1.41-0.13C21.66,6,21.6,5.37,21.18,5.01z"/>
		<path d="M4.1,6.55l3.07-2.56C7.6,3.63,7.66,3,7.3,2.58C6.95,2.15,6.32,2.1,5.9,2.45L2.82,5.01C2.4,5.37,2.34,6,2.7,6.42
			C3.05,6.85,3.68,6.9,4.1,6.55z"/>
		<path d="M12,4c-4.97,0-9,4.03-9,9c0,4.97,4.03,9,9,9s9-4.03,9-9C21,8.03,16.97,4,12,4z M12,20c-3.86,0-7-3.14-7-7s3.14-7,7-7
			s7,3.14,7,7S15.86,20,12,20z"/>
	</g>
</g>
<g id="Sharp" display="none">
	<g id="ui_x5F_spec_x5F_header_copy_4" display="inline">
	</g>
	<g display="inline">
		<polygon points="10.54,14.53 8.41,12.4 7.35,13.46 10.53,16.64 16.53,10.64 15.47,9.58 		"/>
		<rect x="16" y="3.5" transform="matrix(0.7679 0.6406 -0.6406 0.7679 7.2922 -11.1262)" width="6" height="2"/>
		<rect x="4" y="1.5" transform="matrix(0.6406 0.7679 -0.7679 0.6406 5.2528 -2.2221)" width="2" height="6"/>
		<path d="M12,4c-4.97,0-9,4.03-9,9c0,4.97,4.03,9,9,9s9-4.03,9-9C21,8.03,16.97,4,12,4z M12,20c-3.86,0-7-3.14-7-7s3.14-7,7-7
			s7,3.14,7,7S15.86,20,12,20z"/>
	</g>
</g>
<g id="Outline" display="none">
	<g id="ui_x5F_spec_x5F_header" display="inline">
	</g>
	<g display="inline">
		<polygon points="10.54,14.53 8.41,12.4 7.35,13.46 10.53,16.64 16.53,10.64 15.47,9.58 		"/>
		<rect x="16" y="3.5" transform="matrix(0.7679 0.6406 -0.6406 0.7679 7.2922 -11.1262)" width="6" height="2"/>
		<rect x="4" y="1.5" transform="matrix(0.6406 0.7679 -0.7679 0.6406 5.2528 -2.2221)" width="2" height="6"/>
		<path d="M12,4c-4.97,0-9,4.03-9,9c0,4.97,4.03,9,9,9s9-4.03,9-9C21,8.03,16.97,4,12,4z M12,20c-3.86,0-7-3.14-7-7s3.14-7,7-7
			s7,3.14,7,7S15.86,20,12,20z"/>
	</g>
</g>
<g id="Duotone" display="none">
	<g id="ui_x5F_spec_x5F_header_copy_2" display="inline">
	</g>
	<g display="inline">
		<path opacity="0.3" d="M12,6c-3.86,0-7,3.14-7,7s3.14,7,7,7s7-3.14,7-7S15.86,6,12,6z M10.53,16.64l-3.18-3.18l1.06-1.06
			l2.13,2.13l4.93-4.95l1.06,1.06L10.53,16.64z"/>
		<polygon points="10.54,14.53 8.41,12.4 7.35,13.46 10.53,16.64 16.53,10.64 15.47,9.58 		"/>
		<rect x="16" y="3.5" transform="matrix(0.7679 0.6406 -0.6406 0.7679 7.2922 -11.1262)" width="6" height="2"/>
		<rect x="4" y="1.5" transform="matrix(0.6406 0.7679 -0.7679 0.6406 5.2528 -2.2221)" width="2" height="6"/>
		<path d="M12,4c-4.97,0-9,4.03-9,9c0,4.97,4.03,9,9,9s9-4.03,9-9C21,8.03,16.97,4,12,4z M12,20c-3.86,0-7-3.14-7-7s3.14-7,7-7
			s7,3.14,7,7S15.86,20,12,20z"/>
	</g>
</g>
<g id="Fill" display="none">
	<g id="ui_x5F_spec_x5F_header_copy" display="inline">
	</g>
	<g display="inline">
		<polygon points="10.54,14.53 8.41,12.4 7.35,13.46 10.53,16.64 16.53,10.64 15.47,9.58 		"/>
		<rect x="16" y="3.5" transform="matrix(0.7679 0.6406 -0.6406 0.7679 7.2922 -11.1262)" width="6" height="2"/>
		<rect x="4" y="1.5" transform="matrix(0.6406 0.7679 -0.7679 0.6406 5.2528 -2.2221)" width="2" height="6"/>
		<path d="M12,4c-4.97,0-9,4.03-9,9c0,4.97,4.03,9,9,9s9-4.03,9-9C21,8.03,16.97,4,12,4z M12,20c-3.86,0-7-3.14-7-7s3.14-7,7-7
			s7,3.14,7,7S15.86,20,12,20z"/>
	</g>
</g>
<g id="nyt_x5F_exporter_x5F_info" display="none">
	<g display="inline">
		<path d="M9.15-4.71c0-0.74-0.02-1.34-0.05-1.9h0.95l0.05,1h0.02c0.43-0.71,1.12-1.13,2.06-1.13c1.4,0,2.46,1.19,2.46,2.95
			c0,2.09-1.27,3.12-2.64,3.12c-0.77,0-1.44-0.34-1.79-0.91H10.2v3.15H9.15V-4.71z M10.2-3.16c0,0.16,0.02,0.3,0.05,0.43
			C10.44-2,11.07-1.5,11.83-1.5c1.12,0,1.76-0.91,1.76-2.24c0-1.16-0.61-2.16-1.73-2.16c-0.72,0-1.39,0.52-1.6,1.31
			C10.23-4.46,10.2-4.3,10.2-4.16V-3.16z"/>
		<path d="M5.8,14.5v0.6h-6v-0.6H5.8z"/>
		<path d="M6.54,12.52c0.31,0.2,0.86,0.42,1.39,0.42c0.77,0,1.13-0.38,1.13-0.86c0-0.5-0.3-0.78-1.08-1.07
			c-1.04-0.37-1.54-0.95-1.54-1.64c0-0.94,0.76-1.7,2-1.7c0.59,0,1.1,0.17,1.43,0.36L9.61,8.79C9.38,8.65,8.96,8.46,8.42,8.46
			c-0.62,0-0.97,0.36-0.97,0.79c0,0.48,0.35,0.7,1.1,0.98c1.01,0.38,1.52,0.89,1.52,1.75c0,1.02-0.79,1.74-2.17,1.74
			c-0.64,0-1.22-0.16-1.63-0.4L6.54,12.52z"/>
		<path d="M15.57,13.38c-0.28,0.14-0.89,0.34-1.67,0.34c-1.75,0-2.89-1.19-2.89-2.96c0-1.79,1.22-3.08,3.12-3.08
			c0.62,0,1.18,0.16,1.46,0.3l-0.24,0.82c-0.25-0.14-0.65-0.28-1.22-0.28c-1.33,0-2.05,0.98-2.05,2.19c0,1.34,0.86,2.17,2.02,2.17
			c0.6,0,1-0.16,1.3-0.29L15.57,13.38z"/>
		<path d="M20.02,13.6l-0.08-0.73H19.9c-0.32,0.46-0.95,0.86-1.77,0.86c-1.18,0-1.77-0.83-1.77-1.67c0-1.4,1.25-2.17,3.49-2.16V9.79
			c0-0.48-0.13-1.34-1.32-1.34c-0.54,0-1.1,0.17-1.51,0.43l-0.24-0.7c0.48-0.31,1.18-0.52,1.91-0.52c1.77,0,2.21,1.21,2.21,2.37
			v2.17c0,0.5,0.02,1,0.1,1.39H20.02z M19.87,10.64c-1.15-0.02-2.46,0.18-2.46,1.31c0,0.68,0.46,1.01,1,1.01
			c0.76,0,1.24-0.48,1.4-0.97c0.04-0.11,0.06-0.23,0.06-0.34V10.64z"/>
		<path d="M22.59,5.08h1.06v8.52h-1.06V5.08z"/>
		<path d="M-3.81,24.49l5.56-2.87v0.83l-4.69,2.35v0.02l4.69,2.35V28l-5.56-2.87V24.49z"/>
		<path d="M2.54,28.48l3.35-8.69H6.7l-3.36,8.69H2.54z"/>
		<path d="M7.55,23.77c0-0.6-0.01-1.09-0.05-1.57h0.94l0.06,0.96h0.02c0.29-0.55,0.96-1.09,1.92-1.09c0.8,0,2.05,0.48,2.05,2.47V28
			h-1.06v-3.35c0-0.94-0.35-1.71-1.34-1.71c-0.7,0-1.24,0.49-1.42,1.08c-0.05,0.13-0.07,0.31-0.07,0.49V28H7.55V23.77z"/>
		<path d="M14.43,22.2l1.27,3.43c0.13,0.38,0.28,0.84,0.37,1.19h0.02c0.11-0.35,0.23-0.79,0.37-1.21l1.15-3.41h1.12l-1.58,4.14
			c-0.76,1.99-1.27,3.01-1.99,3.63c-0.52,0.46-1.03,0.64-1.29,0.68l-0.26-0.89c0.26-0.08,0.61-0.25,0.92-0.52
			c0.29-0.23,0.65-0.64,0.89-1.18c0.05-0.11,0.08-0.19,0.08-0.25c0-0.06-0.02-0.14-0.07-0.28l-2.15-5.35H14.43z"/>
		<path d="M20.97,20.53v1.67h1.51V23h-1.51v3.13c0,0.72,0.2,1.13,0.79,1.13c0.28,0,0.48-0.04,0.61-0.07l0.05,0.79
			c-0.2,0.08-0.53,0.14-0.94,0.14c-0.49,0-0.89-0.16-1.14-0.44c-0.3-0.31-0.41-0.83-0.41-1.51V23h-0.9v-0.8h0.9V20.8L20.97,20.53z"
			/>
	</g>
</g>
</svg>
